X:1
T:Mr Morison of Bognie
T:Mr Morison of Bognie
T:William Marshall
C:William Marshall
%%score { ( 1 2 ) ( 3 4 ) }
L:1/8
M:6/8
K:A
V:1 treble 
V:2 treble 
V:3 bass 
V:4 bass 
V:1
 E | A2 G{B} A2 G | ABc{e} d2 B | c2 A{BAGA} ecA |{G} F3 F2 E | A2 G A2 G | ABc{e} d2 B | %7
 [Ac]2 [ce] ef^d | [Ge]3 [Ge]2 c | dfd B2 d | cec A2 c | d2 c BcA |{G} [DF]3 F2 E | %13
 [EA]2 [EG] [EA]2 [EG] | ABc{e} d2 B | c2 A EFG | [CA]3 [CA]2 |] f/g/ | agf e>fg | agb a2 e | %20
{g} a2 e e>dc | [Ac]3 [GB]2 g | agf efg | agb agf | ecA EFG | [CA]3 [CA]2 g | a2 e cde | f2 d Bcd | %28
 [Ae]2 c A>Bc | [DF]3 F2 E | A2 G A2 [EG] | ABc d2 B |{d} c>BA E>FG | [CA]3 [CA]2 |] %34
V:2
 x | x6 | x6 | x6 | x6 | x6 | x6 | x3 B3 | x6 | x6 | x6 | x3 F2 E | x6 | x6 | E3 E2 E | E2 E D2 D | %16
 x5 |] x | x6 | x6 | x6 | x6 | x6 | x6 | x3 D3 | x6 | A3 A3 | A3 G3 | x3 E3 | x6 | x6 | E2 E D2 E | %32
 E3 D2 D | x5 |] %34
V:3
 z | [A,CE]2 [B,DE] [A,CE]2 [B,DE] | E3 [G,E]2 [G,E] | [A,CE]2 [A,CE] [A,CE]2 [A,CE] | %4
 D,F,B, D2 [B,D] | [A,CE]2 [B,DE] [A,CE]2 [B,DE] | [CE][B,E][B,E] [G,E]2 [G,E] | %7
 [A,E]2 [G,E] [^D,F,]2 [F,A,B,] | E,G,B, E2 [=G,B,E] | [F,D]2 [F,D] [G,E]2 [G,E] | %10
 [A,E]2 [A,E] [G,=B,C]2 [G,A,E] | [F,D]2 E, [D,D]2 [C,A,] | D,F,B, D2 [B,D] | %13
 [E,A,C]2 [E,B,D] [E,A,C]2 [E,B,D] | C,B,A, [E,G,]2 [E,G,] | [A,,A,]2 [A,,A,] [E,,E,]2 [E,,E,] | %16
 A,,C,E, A,2 |] z | [A,E]2 [A,D] [A,C]2 [A,D] | [A,CE]2 [A,DE] [A,CE]2 [A,CE] | %20
 [A,CE]2 [A,CE] [G,B,E]2 [A,CE] | E,A,C E2 [B,DE] | [A,CE]2 [A,DE] [A,CE]2 [A,B,E] | %23
 [B,E]3 [D,D]2 [D,D] | [E,A,C]2 [E,A,C] [E,,E,]2 [E,,E,] | A,,C,E, A,2 z | %26
 [A,CE]2 [A,CE] [A,CE]2 [A,CE] | [D,,D,]2 [D,,D,] [E,,E,]2 [E,,E,] | %28
 [A,,A,]2 [A,,A,] [A,,A,]2 [A,,A,] | D,F,A, D2 [B,D] | [A,CE]2 [E,B,D] [A,CE]2 [E,,E,] | %31
 [A,,A,]2 [=G,,=G,] [F,,F,]2 [^G,,^G,] | [A,,A,]2 [A,,A,] [E,,E,]2 [E,,E,] | A,,C,E, [A,,A,]2 |] %34
V:4
 x | x6 | C,,B,,,A,,, x3 | x6 | x6 | x6 | x6 | x6 | x6 | x6 | x6 | x6 | x6 | x6 | E,,,2 E,,, x3 | %15
 x6 | x5 |] x | x6 | x6 | x6 | x6 | x6 | x6 | x6 | A,,,,3 x3 | x6 | x6 | x6 | x6 | x6 | x6 | x6 | %33
 x5 |] %34

